X:720
T:The lark on the strand 1
T:Gleanntán na Samhaircíní
T:Wicky Sears
R:Jig
O:Ireland
D:Colm Murphy: An Bodhr\'an
B:The Irish Fiddle Book p57
B:Ceol Rince 1 n5
S:Ceol Rince 1 n5
Z:Transcription, chords:Mike Long
M:6/8
L:1/8
K:G
B/A/|\
"G"GEF G2A|"G"BAG "(D)"ABd|"C"edd "G"gdd|"C"edB "D"dBA|\
"G"GEF G2A|"G"BAG "(D)"ABd|"C"edd "G"gdB|"D"AGF "G"G2:|
|:d|\
"G"~g3 efg|"D"afd edB|Add fdd|ed^c def|\
"G"~g3 "D"~a3|"G"bag fgf|"C"edc "G"BcB|"D"AGF "G"G2:|
